swiss/communes/0662.svg

<?xml version="1.0" encoding="UTF-8" standalone="no"?>
<svg
   xmlns:dc="http://purl.org/dc/elements/1.1/"
   xmlns:cc="http://creativecommons.org/ns#"
   xmlns:rdf="http://www.w3.org/1999/02/22-rdf-syntax-ns#"
   xmlns:svg="http://www.w3.org/2000/svg"
   xmlns="http://www.w3.org/2000/svg"
   xmlns:xlink="http://www.w3.org/1999/xlink"
   xmlns:sodipodi="http://sodipodi.sourceforge.net/DTD/sodipodi-0.dtd"
   xmlns:inkscape="http://www.inkscape.org/namespaces/inkscape"
   height="763"
   width="603"
   version="1.0"
   id="svg20"
   sodipodi:version="0.32"
   inkscape:version="0.46"
   sodipodi:docname="Ferenbalm-coat of arms.svg"
   sodipodi:docbase="C:\Users\Camilo\Documents\Escudos de Suiza"
   inkscape:output_extension="org.inkscape.output.svg.inkscape">
  <metadata
     id="metadata31">
    <rdf:RDF>
      <cc:Work
         rdf:about="">
        <dc:format>image/svg+xml</dc:format>
        <dc:type
           rdf:resource="http://purl.org/dc/dcmitype/StillImage" />
        <dc:date>06-AUG-2009</dc:date>
        <dc:creator>
          <cc:Agent>
            <dc:title>Juan G (aliman5040)</dc:title>
          </cc:Agent>
        </dc:creator>
        <cc:license
           rdf:resource="http://creativecommons.org/licenses/GPL/2.0/" />
        <dc:coverage />
        <dc:description />
        <dc:subject>
          <rdf:Bag />
        </dc:subject>
        <dc:language />
        <dc:title>Wappen Gemeinde Ferenbalm</dc:title>
      </cc:Work>
      <cc:License
         rdf:about="http://creativecommons.org/licenses/GPL/2.0/">
        <cc:permits
           rdf:resource="http://web.resource.org/cc/Reproduction" />
        <cc:permits
           rdf:resource="http://web.resource.org/cc/Distribution" />
        <cc:requires
           rdf:resource="http://web.resource.org/cc/Notice" />
        <cc:permits
           rdf:resource="http://web.resource.org/cc/DerivativeWorks" />
        <cc:requires
           rdf:resource="http://web.resource.org/cc/ShareAlike" />
        <cc:requires
           rdf:resource="http://web.resource.org/cc/SourceCode" />
      </cc:License>
    </rdf:RDF>
  </metadata>
  <defs
     id="defs29">
    <inkscape:perspective
       sodipodi:type="inkscape:persp3d"
       inkscape:vp_x="0 : 381.5 : 1"
       inkscape:vp_y="0 : 1000 : 0"
       inkscape:vp_z="603 : 381.5 : 1"
       inkscape:persp3d-origin="301.5 : 254.33333 : 1"
       id="perspective5149" />
    <linearGradient
       id="linearGradient2893">
      <stop
         style="stop-color:#ffffff;stop-opacity:0.3137255;"
         offset="0"
         id="stop2895" />
      <stop
         id="stop2897"
         offset="0.19"
         style="stop-color:#ffffff;stop-opacity:0.25098041;" />
      <stop
         style="stop-color:#6b6b6b;stop-opacity:0.1254902;"
         offset="0.60000002"
         id="stop2901" />
      <stop
         style="stop-color:#000000;stop-opacity:0.1254902;"
         offset="1"
         id="stop2899" />
    </linearGradient>
    <radialGradient
       inkscape:collect="always"
       xlink:href="#linearGradient2893"
       id="radialGradient3236"
       gradientUnits="userSpaceOnUse"
       gradientTransform="matrix(1.215027,1.531577e-24,1.464684e-23,1.266667,-839.1924,-490.4894)"
       cx="858.04236"
       cy="579.93323"
       fx="858.04236"
       fy="579.93323"
       r="300" />
    <inkscape:perspective
       id="perspective5197"
       inkscape:persp3d-origin="372.04724 : 350.78739 : 1"
       inkscape:vp_z="744.09448 : 526.18109 : 1"
       inkscape:vp_y="0 : 1000 : 0"
       inkscape:vp_x="0 : 526.18109 : 1"
       sodipodi:type="inkscape:persp3d" />
    <inkscape:perspective
       id="perspective2458"
       inkscape:persp3d-origin="372.04724 : 350.78739 : 1"
       inkscape:vp_z="744.09448 : 526.18109 : 1"
       inkscape:vp_y="0 : 1000 : 0"
       inkscape:vp_x="0 : 526.18109 : 1"
       sodipodi:type="inkscape:persp3d" />
    <inkscape:perspective
       id="perspective5829"
       inkscape:persp3d-origin="372.04724 : 350.78739 : 1"
       inkscape:vp_z="744.09448 : 526.18109 : 1"
       inkscape:vp_y="0 : 1000 : 0"
       inkscape:vp_x="0 : 526.18109 : 1"
       sodipodi:type="inkscape:persp3d" />
    <inkscape:perspective
       id="perspective5955"
       inkscape:persp3d-origin="372.04724 : 350.78739 : 1"
       inkscape:vp_z="744.09448 : 526.18109 : 1"
       inkscape:vp_y="0 : 1000 : 0"
       inkscape:vp_x="0 : 526.18109 : 1"
       sodipodi:type="inkscape:persp3d" />
    <inkscape:perspective
       id="perspective6107"
       inkscape:persp3d-origin="372.04724 : 350.78739 : 1"
       inkscape:vp_z="744.09448 : 526.18109 : 1"
       inkscape:vp_y="0 : 1000 : 0"
       inkscape:vp_x="0 : 526.18109 : 1"
       sodipodi:type="inkscape:persp3d" />
    <inkscape:perspective
       id="perspective7169"
       inkscape:persp3d-origin="372.04724 : 350.78739 : 1"
       inkscape:vp_z="744.09448 : 526.18109 : 1"
       inkscape:vp_y="0 : 1000 : 0"
       inkscape:vp_x="0 : 526.18109 : 1"
       sodipodi:type="inkscape:persp3d" />
    <inkscape:perspective
       id="perspective7291"
       inkscape:persp3d-origin="372.04724 : 350.78739 : 1"
       inkscape:vp_z="744.09448 : 526.18109 : 1"
       inkscape:vp_y="0 : 1000 : 0"
       inkscape:vp_x="0 : 526.18109 : 1"
       sodipodi:type="inkscape:persp3d" />
  </defs>
  <sodipodi:namedview
     inkscape:window-height="720"
     inkscape:window-width="1280"
     inkscape:pageshadow="2"
     inkscape:pageopacity="0.0"
     guidetolerance="10.0"
     gridtolerance="10.0"
     objecttolerance="10.0"
     borderopacity="1.0"
     bordercolor="#666666"
     pagecolor="#ffffff"
     id="base"
     inkscape:zoom="0.34483356"
     inkscape:cx="288.99243"
     inkscape:cy="546.34515"
     inkscape:window-x="-8"
     inkscape:window-y="-8"
     inkscape:current-layer="layer2"
     showgrid="true"
     showguides="true"
     inkscape:guide-bbox="true">
    <inkscape:grid
       type="xygrid"
       id="grid5151" />
  </sodipodi:namedview>
  <g
     inkscape:groupmode="layer"
     id="layer1"
     inkscape:label="Fond écu"
     style="display:inline"
     sodipodi:insensitive="true">
    <path
       id="path1899"
       d="M 1.5,1.49998 L 1.5,460.3679 C 1.5,626.6785 135.81456,761.5 301.49999,761.5 C 467.18543,761.5 601.5,626.6785 601.5,460.3679 L 601.5,1.49998 L 1.5,1.49998 z"
       style="fill:#e20909;fill-opacity:1" />
  </g>
  <g
     inkscape:groupmode="layer"
     id="layer2"
     inkscape:label="Meubles"
     style="display:inline"
     sodipodi:insensitive="true">
    <g
       id="g7325"
       transform="matrix(4.1134752,0,0,4.1134752,-2557.3653,-2340.6693)">
      <g
         id="g7321">
        <path
           style="opacity:1;fill:#ffffff;fill-opacity:1;fill-rule:evenodd;stroke:#000000;stroke-width:1;stroke-miterlimit:4;stroke-dasharray:none;stroke-opacity:1"
           d="M 678,698 C 757.47461,603 760,608 758,583 L 671,693 L 758,583 C 735,583 735,593 665,688 L 678,698 z"
           id="path7297"
           sodipodi:nodetypes="cccccc" />
        <path
           style="opacity:1;fill:#ffffff;fill-opacity:1;fill-rule:evenodd;stroke:#000000;stroke-width:1;stroke-miterlimit:4;stroke-dasharray:none;stroke-opacity:1"
           d="M 686,703 L 681,709 L 667,699 C 676.4026,705.89202 658.16984,724.12477 652,719 L 658.16984,724.12477 C 648.39121,731.02278 640.634,724.02619 646,714 L 652,719 C 644.22411,711.9696 660.10856,693.73684 667,699 L 651,687 L 656,681 L 686,703 z"
           id="path7299"
           sodipodi:nodetypes="ccccccccccc" />
      </g>
      <g
         id="g7316">
        <path
           style="opacity:1;fill:#ffffff;fill-opacity:1;fill-rule:evenodd;stroke:#000000;stroke-width:1;stroke-miterlimit:4;stroke-dasharray:none;stroke-opacity:1"
           d="M 718.00628,683 L 650,581 L 641,588 L 648,598 L 642,602 L 638,596 L 625,605 L 634,618 L 643,612 L 647,618 L 638,624 L 647,637 L 660,628 L 656,622 L 662,618 L 648,598 L 662,618 L 709,688 L 718.00628,683 z"
           id="path7301"
           sodipodi:nodetypes="ccccccccccccccccccc" />
        <path
           style="opacity:1;fill:#ffffff;fill-opacity:1;fill-rule:evenodd;stroke:#000000;stroke-width:1;stroke-miterlimit:4;stroke-dasharray:none;stroke-opacity:1"
           d="M 742.625,686.625 C 740.81817,686.61837 739.07443,687.80911 738,691 L 722,689 L 713,695 L 711,710 C 695.74634,711.49248 710.84685,730.37738 717,718 L 732,721 C 733.4816,735.3448 753.39996,723.72158 741,716 L 744,698 C 754.01163,697.50725 748.0455,686.64489 742.625,686.625 z M 723,698 L 734,700 L 732,711 L 721,709 L 723,698 z"
           id="path7305" />
        <rect
           style="opacity:1;fill:#ffffff;fill-opacity:1;fill-rule:evenodd;stroke:#000000;stroke-width:1.13194549;stroke-miterlimit:4;stroke-dasharray:none;stroke-opacity:1"
           id="rect7303"
           width="22.638912"
           height="10.873565"
           x="230.12189"
           y="957.65417"
           rx="8.5232906"
           ry="5.4367824"
           transform="matrix(0.8479049,-0.5301483,0.5301483,0.8479049,0,0)" />
      </g>
      <path
         style="opacity:1;fill:#5ab532;fill-opacity:1;fill-rule:evenodd;stroke:#000000;stroke-width:1;stroke-miterlimit:4;stroke-dasharray:none;stroke-opacity:1"
         d="M 730,654.99372 C 726.12978,641.71482 739.65197,635.45361 748,643 C 755.47621,649.75828 757.63176,659.8611 765,668 C 752.18917,665.17377 743.17966,680.04228 732.09377,678 C 717.09188,675.23631 722.46254,658 730,654.99372 z"
         id="path7314"
         sodipodi:nodetypes="cscsc" />
      <path
         sodipodi:nodetypes="cscsc"
         id="path7312"
         d="M 665,654.97687 C 668.87022,641.69797 653.34803,635.45361 645,643 C 637.52379,649.75828 632.00575,663.12354 625,668 C 636.05986,665.52396 648.39554,677.9199 660,675.77391 C 675,673 670,658 665,654.97687 z"
         style="opacity:1;fill:#5ab532;fill-opacity:1;fill-rule:evenodd;stroke:#000000;stroke-width:1;stroke-miterlimit:4;stroke-dasharray:none;stroke-opacity:1" />
      <path
         sodipodi:nodetypes="cscccccscscccsccccc"
         id="path7310"
         d="M 722.46254,731.00628 C 699.69183,733.81124 698.11633,709.24876 700,678 C 701.72926,649.3128 735,653 757.21845,663 C 738.84074,652.99208 720.28076,645.17133 700,658 C 698.56313,639.65027 700.88974,622.13795 695,608 L 695,585.10005 L 695,608 C 699.5174,621.53163 715.35607,617.43029 715,605.90461 C 714.53391,590.81755 700.59604,589.41741 695,578 C 690,588 677.94789,590.32538 675,605.04172 C 673.00615,614.99535 688.29641,623.31427 695,608 C 690.55156,621.0901 691.44846,641.05278 690,658 C 672.4634,642.43031 652.31806,658.81754 633.00628,664.99372 C 659.91415,655.85717 689.74876,650.18897 690,678 C 690.19092,699.13332 694.93266,733.06734 667.35621,731.18753 C 672.63811,737.69206 681.44149,741.15088 690,733 C 689.83802,737.17915 691.29768,741.3583 695,745.53746 C 698.85881,741.3583 699.44678,737.17915 700,733 C 707.73528,739.76833 715.21053,738.73578 722.46254,731.00628 z"
         style="opacity:1;fill:#5ab532;fill-opacity:1;fill-rule:evenodd;stroke:#000000;stroke-width:1;stroke-miterlimit:4;stroke-dasharray:none;stroke-opacity:1" />
    </g>
  </g>
  <g
     inkscape:groupmode="layer"
     id="layer3"
     inkscape:label="Reflet final"
     style="display:inline"
     sodipodi:insensitive="true">
    <path
       style="fill:url(#radialGradient3236);fill-opacity:1"
       d="M 1.5,1.5 L 1.5,460.3679 C 1.5,626.67854 135.81454,761.5 301.49993,761.5 C 467.1854,761.5 601.5,626.67854 601.5,460.3679 L 601.5,1.5 L 1.5,1.5 z "
       id="path2346" />
  </g>
  <g
     inkscape:groupmode="layer"
     id="layer4"
     inkscape:label="Contour final"
     style="display:inline"
     sodipodi:insensitive="true">
    <path
       style="fill:none;fill-opacity:1;stroke:#000000;stroke-width:3;stroke-miterlimit:4;stroke-dasharray:none;stroke-opacity:1"
       d="M 1.5,1.5 L 1.5,460.36794 C 1.5,626.67854 135.81454,761.5 301.49993,761.5 C 467.1854,761.5 601.5,626.67854 601.5,460.36794 L 601.5,1.5 L 1.5,1.5 z"
       id="path3239" />
  </g>
</svg>

<svg xmlns="http://www.w3.org/2000/svg" xmlns:xlink="http://www.w3.org/1999/xlink" height="763" width="603" version="1.0"><defs><radialGradient xlink:href="#a" id="b" gradientUnits="userSpaceOnUse" gradientTransform="matrix(1.21503 0 0 1.26667 -839.192 -490.49)" cx="858.042" cy="579.933" fx="858.042" fy="579.933" r="300"/><linearGradient id="a"><stop style="stop-color:#fff;stop-opacity:.3137255" offset="0"/><stop offset=".19" style="stop-color:#fff;stop-opacity:.25098041"/><stop style="stop-color:#6b6b6b;stop-opacity:.1254902" offset=".6"/><stop style="stop-color:#000;stop-opacity:.1254902" offset="1"/></linearGradient></defs><g style="display:inline"><path d="M1.5 1.5v458.868c0 166.31 134.315 301.132 300 301.132s300-134.822 300-301.132V1.5H1.5z" style="fill:#e20909;fill-opacity:1"/></g><g style="display:inline"><path style="opacity:1;fill:#fff;fill-opacity:1;fill-rule:evenodd;stroke:#000;stroke-width:1;stroke-miterlimit:4;stroke-dasharray:none;stroke-opacity:1" d="M678 698c79.475-95 82-90 80-115l-87 110 87-110c-23 0-23 10-93 105l13 10z" transform="matrix(4.11348 0 0 4.11348 -2557.365 -2340.67)"/><path style="opacity:1;fill:#fff;fill-opacity:1;fill-rule:evenodd;stroke:#000;stroke-width:1;stroke-miterlimit:4;stroke-dasharray:none;stroke-opacity:1" d="m686 703-5 6-14-10c9.403 6.892-8.83 25.125-15 20l6.17 5.125c-9.779 6.898-17.536-.099-12.17-10.125l6 5c-7.776-7.03 8.109-25.263 15-20l-16-12 5-6 30 22z" transform="matrix(4.11348 0 0 4.11348 -2557.365 -2340.67)"/><g transform="matrix(4.11348 0 0 4.11348 -2557.365 -2340.67)"><path style="opacity:1;fill:#fff;fill-opacity:1;fill-rule:evenodd;stroke:#000;stroke-width:1;stroke-miterlimit:4;stroke-dasharray:none;stroke-opacity:1" d="M718.006 683 650 581l-9 7 7 10-6 4-4-6-13 9 9 13 9-6 4 6-9 6 9 13 13-9-4-6 6-4-14-20 14 20 47 70 9.006-5zM742.625 686.625c-1.807-.007-3.55 1.184-4.625 4.375l-16-2-9 6-2 15c-15.254 1.492-.153 20.377 6 8l15 3c1.482 14.345 21.4 2.722 9-5l3-18c10.012-.493 4.045-11.355-1.375-11.375zM723 698l11 2-2 11-11-2 2-11z"/><rect style="opacity:1;fill:#fff;fill-opacity:1;fill-rule:evenodd;stroke:#000;stroke-width:1.13194549;stroke-miterlimit:4;stroke-dasharray:none;stroke-opacity:1" width="22.639" height="10.874" x="230.122" y="957.654" rx="8.523" ry="5.437" transform="rotate(-32.015)"/></g><path style="opacity:1;fill:#5ab532;fill-opacity:1;fill-rule:evenodd;stroke:#000;stroke-width:1;stroke-miterlimit:4;stroke-dasharray:none;stroke-opacity:1" d="M730 654.994c-3.87-13.28 9.652-19.54 18-11.994 7.476 6.758 9.632 16.861 17 25-12.81-2.826-21.82 12.042-32.906 10-15.002-2.764-9.631-20-2.094-23.006zM665 654.977c3.87-13.279-11.652-19.523-20-11.977-7.476 6.758-12.994 20.124-20 25 11.06-2.476 23.396 9.92 35 7.774 15-2.774 10-17.774 5-20.797z" transform="matrix(4.11348 0 0 4.11348 -2557.365 -2340.67)"/><path d="M722.463 731.006C699.692 733.811 698.116 709.25 700 678c1.73-28.687 35-25 57.218-15-18.377-10.008-36.937-17.829-57.218-5-1.437-18.35.89-35.862-5-50v-22.9V608c4.517 13.532 20.356 9.43 20-2.095-.466-15.087-14.404-16.488-20-27.905-5 10-17.052 12.325-20 27.042-1.994 9.953 13.296 18.272 20 2.958-4.448 13.09-3.552 33.053-5 50-17.537-15.57-37.682.818-56.994 6.994C659.914 655.857 689.75 650.189 690 678c.19 21.133 4.933 55.067-22.644 53.188 5.282 6.504 14.085 9.963 22.644 1.812-.162 4.18 1.298 8.358 5 12.537 3.859-4.179 4.447-8.358 5-12.537 7.735 6.768 15.21 5.736 22.463-1.994z" style="opacity:1;fill:#5ab532;fill-opacity:1;fill-rule:evenodd;stroke:#000;stroke-width:1;stroke-miterlimit:4;stroke-dasharray:none;stroke-opacity:1" transform="matrix(4.11348 0 0 4.11348 -2557.365 -2340.67)"/></g><g style="display:inline"><path style="fill:url(#b);fill-opacity:1" d="M1.5 1.5v458.868c0 166.31 134.315 301.132 300 301.132s300-134.821 300-301.132V1.5H1.5z"/></g><g style="display:inline"><path style="fill:none;fill-opacity:1;stroke:#000;stroke-width:3;stroke-miterlimit:4;stroke-dasharray:none;stroke-opacity:1" d="M1.5 1.5v458.868c0 166.31 134.315 301.132 300 301.132s300-134.821 300-301.132V1.5H1.5z"/></g></svg>
